X: 62
T: Tiao kucai
%%abc-version 2.0
%%abcx-abcm2ps-target-version 5.9.1 (29 Sep 2008)
%%abc-creator hum2abc beta
%%abcx-conversion-date 2013/10/02 07:52:29
%%abc-edited-by Helmut Schaffrath
%%humdrum-veritas 3065985020
%%humdrum-veritas-data 2303997107
%%continueall 1
%%barnumbers 0
L: 1/8
M: 2/4
K: G
d2A A [I:setbarnb 1]| 
d2e d | 
d A A d | 
A3G | 
GG2A | 
d e d A | 
G G/ B/ A E | 
D4 | 
d EG2 | 
zA2d | 
d A A G | 
A E E D | 
GG2A | 
d e d A | 
G G/ B/ A E | 
D4 | 
B B/ A/ G B | 
A E E D | 
GG2A | 
d> e d A | 
G G/ B/ A E | 
D4 |]  



